X:1
T:Title
%%score [ 1 2 3 4 ]
L:1/8
Q:1/4=120
M:none
K:Ab
V:1 treble nm="S."
V:2 treble nm="A."
V:3 treble-8 nm="T."
V:4 bass nm="B."
V:1
"^Psalm 25, 5-6"!p! c2 cc c2 F2"^Call to remembrance" A4 G4"^Richard Farrant\n(d. 1580)" F2 F2 | %1
w: Call to re- mem- brance, O Lord, call to|
 C2 D3 C B,2 C4!mp! c2 cc c2 F2 A4 G4 | F2 c2 c2 d4 B2 c4 =A2 z c e2 d2 | %3
w: re- mem- brance, O Lord, call to re- mem- brance, O Lord,|call to re- mem- brance, O Lord, thy ten- der|
 c4 B2 AA G2 F2 =E2 E2 z2 G2 | A2 B2 c2 BA G2 AA G4 F2 z4 _A2 | %5
w: mer- cy and thy lov- ing kind- ness which|hath been ev- er of old, ev- er of old, which|
 B2 c2 d2 c(B=AG A2) B4 z2!mp! B4 B2 B3 B | B2 c2 d4 d3 e f2 e2 d2 d2 c4 | %7
w: hath been ev- er of * * * old. O re- mem- ber|not the sins and of- fen- ces of my youth:|
 z2 cc d3 c B2 B2 c3 (B A2) A2 G2 F2 | F2 =E2 F4 z2!p! cc d3 c B2 B2 c3 (B A2) | %9
w: but ac- cord- ing to thy mer- cy * think thou on|me, O Lord, but ac- cord- ing to thy mer- cy *|
 A2 G2 F2 F2 =E2 F6 d4 c2 B4 !fermata!=A8 | %10
w: think thou on me, O Lord, for thy good- ness.|
V:2
 z4!p! F2 FF F2 C2 E4 A,2 A2 | AA G2 F6 (=E=D) E4!mp! F2 FF F2 C2 _E4 | %2
w: Call to re- mem- brance, O Lord, call|to re- mem- brance, O * Lord, call to re- mem- brance, O|
 A,2 A2 AA G2 F2 (F3 =E/=D/ E2) F2 _A2 G2 F2 | _EE G4 E2 E(DCB,) C2 C2 z2 _E2 | %4
w: Lord, call to re- mem- brance, O * * * Lord, thy ten- der|mer- cy and thy lov- ing * * kind- ness which|
 F2 G2 A2 GF =E2 F2 F2 !courtesy!=E2 F2 _ED C2 E2 | %5
w: hath been ev- er of old, which hath been ev- er of old, which|
 _G2 G2 A2 !courtesy!_G2 F4 =D4 z2!mp! F4 F2 =G3 G | G2 A2 A4 A2 A2 A2 A2 F2 B2 =A2 _AA | %7
w: hath been ev- er of old. O re- mem- ber|not the sins and of- fen- ces of my youth: but ac-|
 G2 A2 B2 (A4 G2) A3 (G F2) E2 E2 C2 | C2 C2 C2!p! AA G2 A2 B2 (A4 G2) A3 (G F2) | %9
w: cord- ing to thy * mer- cy * think thou on|me, O Lord, but ac- cord- ing to thy * mer- cy *|
 E2 E2 C2 C2 C2 C6 A4 A2 F4 !fermata!F8 | %10
w: think thou on me, O Lord, for thy good- ness.|
V:3
 z8 z4!p! c2 cc c2 F2 | (A2 B3 A F2 G8) F4 z4!mp! c2 cc | c2 F2 (A2 B3 A F2 G4) F3 FGA B2 | %3
w: Call to re- mem- brance,|O * * * * Lord, call to re-|mem- brance, O * * * * Lord, thy ten- der mer-|
 G2 e2 =d2 c3 (B A2) G4 G4 | z16 z4 z2 c2 | d2 e2 f2 e(dcB c2) B4 z2!mp! =d4 d2 e3 e | %6
w: cy and thy lov- ing * kind- ness|which|hath been ev- er of * * * old. O re- mem- ber|
 e2 e2 f4 f3 e d2 c2 B2 f2 f2 ff | =e2 f2 f2 d2 _e6 A4 c2 B2 A2 | %8
w: not the sins and of- fen- ces of my youth: but ac-|cord- ing to thy mer- cy think thou on|
 G2 G2 F2!p! ff =e2 f2 f2 d2 _e6 A4 | c2 B2 A2 G2 G2 F6 f4 e2 d4 !fermata!c8 | %10
w: me, O Lord, but ac- cord- ing to thy mer- cy|think thou on me, O Lord, for thy good- ness.|
V:4
 z16!p! F,2 F,F, | F,2 B,,2 D,4 C,4 C,4 F,8 z4 |!mp! F,2 F,F, F,2 B,,2 D,4 C,4 z2 F,2 E,2 B,,2 | %3
w: Call to re-|mem- brance, O Lord, O Lord,|call to re- mem- brance, O Lord, thy ten- der|
 C,C, C2 G,2 A,2 E,2 F,2 C,8 | z8 z2 A,2 B,2 C2 D2 CB, =A,3 _A, | %5
w: mer- cy and thy lov- ing kind- ness|which hath been ev- er of old, which|
 _G,2 (F,E,) D,2 E,2 F,4 B,,4 z2!mp! B,4 B,2 E,3 E, | %6
w: hath been * ev- er of old. O re- mem- ber|
 E,2 A,2 D,4 D,2 D,2 D,2 A,,2 B,,2 B,,2 F,2 F,F, | C2 F,2 B,4 E,4 A,2 F,4 C,2 E,2 F,2 | %8
w: not the sins and of- fen- ces of my youth: but ac-|cord- ing to thy mer- cy think thou on|
 C,2 C,2 F,2!p! F,F, C2 F,2 B,4 E,4 A,2 F,4 | C,2 E,2 F,2 C,2 C,2 F,6 D,4 A,,2 B,,4 !fermata!F,8 | %10
w: me, O Lord, but ac- cord- ing to thy mer- cy|think thou on me, O Lord, for thy good- ness.|

